images/topic-branches-2.svg

<?xml version="1.0"?>
<svg xmlns="http://www.w3.org/2000/svg" xmlns:xlink="http://www.w3.org/1999/xlink" width="465px" height="461px" viewBox="0 0 465 461" version="1.1">
    <!-- Generator: Sketch 56.3 (81716) - https://sketch.com -->
    <title>images/topic-branches-2</title>
    <desc>Created with Sketch.</desc>
    <g id="03---Topic-Branches-2" stroke="none" stroke-width="1" fill="none" fill-rule="evenodd">
        <g id="brown" transform="translate(120.000000, 413.000000)">
            <rect id="Rectangle-1" fill="#EFEFE7" fill-rule="evenodd" x="0" y="0" width="89" height="33" rx="16.5"/>
            <text stroke="none" font-family="Source Code Pro" font-size="12px" font-weight="900" fill="#979797" fill-opacity="1" text-anchor="middle" id="C6">
                <tspan fill="#808080" x="44.5" y="21" fill-opacity="1">C0</tspan>
            </text>
        </g>
        <path id="Line-2" d="M165,404 L165,379 L166,379 L166,404 L170,404 L165.5,413 L161,404 L165,404 Z" fill="#8F8981" fill-rule="nonzero"/>
        <g id="brown" transform="translate(120.000000, 360.000000)">
            <rect id="Rectangle-1" fill="#EFEFE7" fill-rule="evenodd" x="0" y="0" width="89" height="33" rx="16.5"/>
            <text stroke="none" font-family="Source Code Pro" font-size="12px" font-weight="900" fill="#979797" fill-opacity="1" text-anchor="middle" id="C6">
                <tspan fill="#808080" x="44.5" y="21" fill-opacity="1">C1</tspan>
            </text>
        </g>
        <path id="Line-3" d="M165,351 L165,326 L166,326 L166,351 L170,351 L165.5,360 L161,351 L165,351 Z" fill="#8F8981" fill-rule="nonzero"/>
        <g id="brown" transform="translate(120.000000, 307.000000)">
            <rect id="Rectangle-1" fill="#EFEFE7" fill-rule="evenodd" x="0" y="0" width="89" height="33" rx="16.5"/>
            <text stroke="none" font-family="Source Code Pro" font-size="12px" font-weight="900" fill="#979797" fill-opacity="1" text-anchor="middle" id="C6">
                <tspan fill="#808080" x="44.5" y="21" fill-opacity="1">C3</tspan>
            </text>
        </g>
        <path id="Line-4" d="M165,298 L165,273 L166,273 L166,298 L170,298 L165.5,307 L161,298 L165,298 Z" fill="#8F8981" fill-rule="nonzero"/>
        <g id="brown" transform="translate(120.000000, 254.000000)">
            <rect id="Rectangle-1" fill="#EFEFE7" fill-rule="evenodd" x="0" y="0" width="89" height="33" rx="16.5"/>
            <text stroke="none" font-family="Source Code Pro" font-size="12px" font-weight="900" fill="#979797" fill-opacity="1" text-anchor="middle" id="C6">
                <tspan fill="#808080" x="44.5" y="21" fill-opacity="1">C9</tspan>
            </text>
        </g>
        <path id="Line-5" d="M165,245 L165,220 L166,220 L166,245 L170,245 L165.5,254 L161,245 L165,245 Z" fill="#8F8981" fill-rule="nonzero"/>
        <g id="brown" transform="translate(120.000000, 201.000000)">
            <rect id="Rectangle-1" fill="#EFEFE7" fill-rule="evenodd" x="0" y="0" width="89" height="33" rx="16.5"/>
            <text stroke="none" font-family="Source Code Pro" font-size="12px" font-weight="900" fill="#979797" fill-opacity="1" text-anchor="middle" id="C6">
                <tspan fill="#808080" x="44.5" y="21" fill-opacity="1">C10</tspan>
            </text>
        </g>
        <path id="Line-6" d="M215.056604,364.576005 L301.752534,325.839526 L302.160474,326.752534 L215.464544,365.489014 L217.096304,369.141049 L207.043496,368.70397 L213.424844,360.92397 L215.056604,364.576005 Z" fill="#8F8981" fill-rule="nonzero"/>
        <g id="brown" transform="translate(256.000000, 307.000000)">
            <rect id="Rectangle-1" fill="#EFEFE7" fill-rule="evenodd" x="0" y="0" width="89" height="33" rx="16.5"/>
            <text stroke="none" font-family="Source Code Pro" font-size="12px" font-weight="900" fill="#979797" fill-opacity="1" text-anchor="middle" id="C6">
                <tspan fill="#808080" x="44.5" y="21" fill-opacity="1">C2</tspan>
            </text>
        </g>
        <path id="Line-7" d="M301,298 L301,273 L302,273 L302,298 L306,298 L301.5,307 L297,298 L301,298 Z" fill="#8F8981" fill-rule="nonzero"/>
        <g id="brown" transform="translate(256.000000, 254.000000)">
            <rect id="Rectangle-1" fill="#EFEFE7" fill-rule="evenodd" x="0" y="0" width="89" height="33" rx="16.5"/>
            <text stroke="none" font-family="Source Code Pro" font-size="12px" font-weight="900" fill="#979797" fill-opacity="1" text-anchor="middle" id="C6">
                <tspan fill="#808080" x="44.5" y="21" fill-opacity="1">C4</tspan>
            </text>
        </g>
        <path id="Line-11" d="M164,139 L164,114 L165,114 L165,139 L169,139 L164.5,148 L160,139 L164,139 Z" fill="#8F8981" fill-rule="nonzero"/>
        <g id="brown" transform="translate(119.000000, 95.000000)">
            <rect id="Rectangle-1" fill="#EFEFE7" fill-rule="evenodd" x="0" y="0" width="89" height="33" rx="16.5"/>
            <text stroke="none" font-family="Source Code Pro" font-size="12px" font-weight="900" fill="#979797" fill-opacity="1" text-anchor="middle" id="C6">
                <tspan fill="#808080" x="44.5" y="21" fill-opacity="1">C13</tspan>
            </text>
        </g>
        <path id="Line-11" d="M165,86 L165,61 L166,61 L166,86 L170,86 L165.5,95 L161,86 L165,86 Z" fill="#8F8981" fill-rule="nonzero"/>
        <path id="Line-12" d="M252.963277,95.5379537 L196.813608,61.6698991 L197.330101,60.8136078 L253.47977,94.6816624 L255.545743,91.2564972 L260.928146,99.7582466 L250.897305,98.9631189 L252.963277,95.5379537 Z" fill="#8F8981" fill-rule="nonzero"/>
        <g id="brown" transform="translate(120.000000, 42.000000)">
            <rect id="Rectangle-1" fill="#EFEFE7" fill-rule="evenodd" x="0" y="0" width="89" height="33" rx="16.5"/>
            <text stroke="none" font-family="Source Code Pro" font-size="12px" font-weight="900" fill="#979797" fill-opacity="1" text-anchor="middle" id="C6">
                <tspan fill="#808080" x="44.5" y="21" fill-opacity="1">C14</tspan>
            </text>
        </g>
        <path id="Line-11" d="M166,192 L166,167 L167,167 L167,192 L171,192 L166.5,201 L162,192 L166,192 Z" fill="#8F8981" fill-rule="nonzero"/>
        <g id="brown" transform="translate(121.000000, 148.000000)">
            <rect id="Rectangle-1" fill="#EFEFE7" fill-rule="evenodd" x="0" y="0" width="89" height="33" rx="16.5"/>
            <text stroke="none" font-family="Source Code Pro" font-size="12px" font-weight="900" fill="#979797" fill-opacity="1" text-anchor="middle" id="C6">
                <tspan fill="#808080" x="44.5" y="21" fill-opacity="1">C12</tspan>
            </text>
        </g>
        <g id="ref" transform="translate(121.000000, 4.000000)">
            <rect id="Rectangle-2" fill="#F44D27" fill-rule="evenodd" x="0" y="0" width="106" height="33"/>
            <text stroke="none" font-family="Source Code Pro" font-size="12px" font-weight="900" fill="#979797" fill-opacity="1" text-anchor="middle" id="master">
                <tspan fill="#f0f0f0" x="53" y="20" fill-opacity="1">master</tspan>
            </text>
        </g>
        <path id="Line-14" d="M301,245 L301,220 L302,220 L302,245 L306,245 L301.5,254 L297,245 L301,245 Z" fill="#8F8981" fill-rule="nonzero"/>
        <g id="brown" transform="translate(256.000000, 201.000000)">
            <rect id="Rectangle-1" fill="#EFEFE7" fill-rule="evenodd" x="0" y="0" width="89" height="33" rx="16.5"/>
            <text stroke="none" font-family="Source Code Pro" font-size="12px" font-weight="900" fill="#979797" fill-opacity="1" text-anchor="middle" id="C6">
                <tspan fill="#808080" x="44.5" y="21" fill-opacity="1">C7</tspan>
            </text>
        </g>
        <path id="Line-13" d="M301,192 L301,167 L302,167 L302,192 L306,192 L301.5,201 L297,192 L301,192 Z" fill="#8F8981" fill-rule="nonzero"/>
        <g id="brown" transform="translate(256.000000, 148.000000)">
            <rect id="Rectangle-1" fill="#EFEFE7" fill-rule="evenodd" x="0" y="0" width="89" height="33" rx="16.5"/>
            <text stroke="none" font-family="Source Code Pro" font-size="12px" font-weight="900" fill="#979797" fill-opacity="1" text-anchor="middle" id="C6">
                <tspan fill="#808080" x="44.5" y="21" fill-opacity="1">C8</tspan>
            </text>
        </g>
        <path id="Line" d="M301,139 L301,114 L302,114 L302,139 L306,139 L301.5,148 L297,139 L301,139 Z" fill="#8F8981" fill-rule="nonzero"/>
        <g id="brown" transform="translate(256.000000, 95.000000)">
            <rect id="Rectangle-1" fill="#EFEFE7" fill-rule="evenodd" x="0" y="0" width="89" height="33" rx="16.5"/>
            <text stroke="none" font-family="Source Code Pro" font-size="12px" font-weight="900" fill="#979797" fill-opacity="1" text-anchor="middle" id="C6">
                <tspan fill="#808080" x="44.5" y="21" fill-opacity="1">C11</tspan>
            </text>
        </g>
        <g id="ref" transform="translate(350.000000, 95.000000)">
            <rect id="Rectangle-2" fill="#F44D27" fill-rule="evenodd" x="0" y="0" width="106" height="33"/>
            <text stroke="none" font-family="Source Code Pro" font-size="12px" font-weight="900" fill="#979797" fill-opacity="1" text-anchor="middle" id="master">
                <tspan fill="#f0f0f0" x="53" y="20" fill-opacity="1">iss91v2</tspan>
            </text>
        </g>
        <g id="ref" transform="translate(7.000000, 95.000000)">
            <rect id="Rectangle-2" fill="#F44D27" fill-rule="evenodd" x="0" y="0" width="106" height="33"/>
            <text stroke="none" font-family="Source Code Pro" font-size="12px" font-weight="900" fill="#979797" fill-opacity="1" text-anchor="middle" id="master">
                <tspan fill="#f0f0f0" x="53" y="20" fill-opacity="1">dumbidea</tspan>
            </text>
        </g>
    </g>
</svg>

<?xml version="1.0" encoding="UTF-8"?>
<svg id="svg30926" version="1.1" viewBox="0 0 465 461" xmlns="http://www.w3.org/2000/svg" xmlns:cc="http://creativecommons.org/ns#" xmlns:dc="http://purl.org/dc/elements/1.1/" xmlns:rdf="http://www.w3.org/1999/02/22-rdf-syntax-ns#">
 <metadata id="metadata30932">
  <rdf:RDF>
   <cc:Work rdf:about="">
    <dc:format>image/svg+xml</dc:format>
    <dc:type rdf:resource="http://purl.org/dc/dcmitype/StillImage"/>
    <dc:title>images/topic-branches-2</dc:title>
   </cc:Work>
  </rdf:RDF>
 </metadata>
 <!-- Generator: Sketch 56.3 (81716) - https://sketch.com -->
 <title id="title30784">images/topic-branches-2</title>
 <desc id="desc30786">Created with Sketch.</desc>
 <g id="03---Topic-Branches-2" fill="none" fill-rule="evenodd">
  <g id="brown" transform="translate(120 413)">
   <rect id="Rectangle-1" width="89" height="33" rx="16.5" fill="#EFEFE7" fill-rule="evenodd"/>
   <text id="C6" fill="#979797" font-family="Source Code Pro" font-size="12px" font-weight="700" text-anchor="middle"><tspan id="tspan30789" x="44.5" y="21" fill="#808080">C0</tspan></text>
  </g>
  <path id="Line-2" d="m165 404v-25h1v25h4l-4.5 9-4.5-9h4z" fill="#8F8981" fill-rule="nonzero"/>
  <g id="g30800" transform="translate(120 360)">
   <rect id="rect30794" width="89" height="33" rx="16.5" fill="#EFEFE7" fill-rule="evenodd"/>
   <text id="text30798" fill="#979797" font-family="Source Code Pro" font-size="12px" font-weight="700" text-anchor="middle"><tspan id="tspan30796" x="44.5" y="21" fill="#808080">C1</tspan></text>
  </g>
  <path id="Line-3" d="m165 351v-25h1v25h4l-4.5 9-4.5-9h4z" fill="#8F8981" fill-rule="nonzero"/>
  <g id="g30809" transform="translate(120 307)">
   <rect id="rect30803" width="89" height="33" rx="16.5" fill="#EFEFE7" fill-rule="evenodd"/>
   <text id="text30807" fill="#979797" font-family="Source Code Pro" font-size="12px" font-weight="700" text-anchor="middle"><tspan id="tspan30805" x="44.5" y="21" fill="#808080">C3</tspan></text>
  </g>
  <path id="Line-4" d="m165 298v-25h1v25h4l-4.5 9-4.5-9h4z" fill="#8F8981" fill-rule="nonzero"/>
  <g id="g30818" transform="translate(120 254)">
   <rect id="rect30812" width="89" height="33" rx="16.5" fill="#EFEFE7" fill-rule="evenodd"/>
   <text id="text30816" fill="#979797" font-family="Source Code Pro" font-size="12px" font-weight="700" text-anchor="middle"><tspan id="tspan30814" x="44.5" y="21" fill="#808080">C9</tspan></text>
  </g>
  <path id="Line-5" d="m165 245v-25h1v25h4l-4.5 9-4.5-9h4z" fill="#8F8981" fill-rule="nonzero"/>
  <g id="g30827" transform="translate(120 201)">
   <rect id="rect30821" width="89" height="33" rx="16.5" fill="#EFEFE7" fill-rule="evenodd"/>
   <text id="text30825" fill="#979797" font-family="Source Code Pro" font-size="12px" font-weight="700" text-anchor="middle"><tspan id="tspan30823" x="44.5" y="21" fill="#808080">C10</tspan></text>
  </g>
  <path id="Line-6" d="m215.06 364.58 86.696-38.736.40794.91301-86.696 38.736 1.6318 3.652-10.053-.43708 6.3813-7.78 1.6318 3.652z" fill="#8F8981" fill-rule="nonzero"/>
  <g id="g30836" transform="translate(256 307)">
   <rect id="rect30830" width="89" height="33" rx="16.5" fill="#EFEFE7" fill-rule="evenodd"/>
   <text id="text30834" fill="#979797" font-family="Source Code Pro" font-size="12px" font-weight="700" text-anchor="middle"><tspan id="tspan30832" x="44.5" y="21" fill="#808080">C2</tspan></text>
  </g>
  <path id="Line-7" d="m301 298v-25h1v25h4l-4.5 9-4.5-9h4z" fill="#8F8981" fill-rule="nonzero"/>
  <g id="g30845" transform="translate(256 254)">
   <rect id="rect30839" width="89" height="33" rx="16.5" fill="#EFEFE7" fill-rule="evenodd"/>
   <text id="text30843" fill="#979797" font-family="Source Code Pro" font-size="12px" font-weight="700" text-anchor="middle"><tspan id="tspan30841" x="44.5" y="21" fill="#808080">C4</tspan></text>
  </g>
  <path id="Line-11" d="m164 139v-25h1v25h4l-4.5 9-4.5-9h4z" fill="#8F8981" fill-rule="nonzero"/>
  <g id="g30854" transform="translate(119 95)">
   <rect id="rect30848" width="89" height="33" rx="16.5" fill="#EFEFE7" fill-rule="evenodd"/>
   <text id="text30852" fill="#979797" font-family="Source Code Pro" font-size="12px" font-weight="700" text-anchor="middle"><tspan id="tspan30850" x="44.5" y="21" fill="#808080">C13</tspan></text>
  </g>
  <path id="path30856" d="m165 86v-25h1v25h4l-4.5 9-4.5-9h4z" fill="#8F8981" fill-rule="nonzero"/>
  <path id="Line-12" d="m252.96 95.538-56.15-33.868.51649-.85629 56.15 33.868 2.066-3.4252 5.3824 8.5017-10.031-.79513 2.066-3.4252z" fill="#8F8981" fill-rule="nonzero"/>
  <g id="g30865" transform="translate(120 42)">
   <rect id="rect30859" width="89" height="33" rx="16.5" fill="#EFEFE7" fill-rule="evenodd"/>
   <text id="text30863" fill="#979797" font-family="Source Code Pro" font-size="12px" font-weight="700" text-anchor="middle"><tspan id="tspan30861" x="44.5" y="21" fill="#808080">C14</tspan></text>
  </g>
  <path id="path30867" d="m166 192v-25h1v25h4l-4.5 9-4.5-9h4z" fill="#8F8981" fill-rule="nonzero"/>
  <g id="g30875" transform="translate(121 148)">
   <rect id="rect30869" width="89" height="33" rx="16.5" fill="#EFEFE7" fill-rule="evenodd"/>
   <text id="text30873" fill="#979797" font-family="Source Code Pro" font-size="12px" font-weight="700" text-anchor="middle"><tspan id="tspan30871" x="44.5" y="21" fill="#808080">C12</tspan></text>
  </g>
  <g id="ref" transform="translate(119,4)">
   <rect id="Rectangle-2" transform="scale(.83962 1)" width="106" height="33" style="fill-rule:evenodd;fill:#f44d27"/>
   <text id="master" transform="translate(-8.4003 .316)" font-size="12px" font-weight="700" style="fill:#979797;font-family:'Source Code Pro';font-size:12px;font-weight:700;text-anchor:middle"><tspan id="tspan30878" x="53" y="20" style="fill:#f0f0f0">master</tspan></text>
  </g>
  <path id="Line-14" d="m301 245v-25h1v25h4l-4.5 9-4.5-9h4z" fill="#8F8981" fill-rule="nonzero"/>
  <g id="g30889" transform="translate(256 201)">
   <rect id="rect30883" width="89" height="33" rx="16.5" fill="#EFEFE7" fill-rule="evenodd"/>
   <text id="text30887" fill="#979797" font-family="Source Code Pro" font-size="12px" font-weight="700" text-anchor="middle"><tspan id="tspan30885" x="44.5" y="21" fill="#808080">C7</tspan></text>
  </g>
  <path id="Line-13" d="m301 192v-25h1v25h4l-4.5 9-4.5-9h4z" fill="#8F8981" fill-rule="nonzero"/>
  <g id="g30898" transform="translate(256 148)">
   <rect id="rect30892" width="89" height="33" rx="16.5" fill="#EFEFE7" fill-rule="evenodd"/>
   <text id="text30896" fill="#979797" font-family="Source Code Pro" font-size="12px" font-weight="700" text-anchor="middle"><tspan id="tspan30894" x="44.5" y="21" fill="#808080">C8</tspan></text>
  </g>
  <path id="Line" d="m301 139v-25h1v25h4l-4.5 9-4.5-9h4z" fill="#8F8981" fill-rule="nonzero"/>
  <g id="g30907" transform="translate(256 95)">
   <rect id="rect30901" width="89" height="33" rx="16.5" fill="#EFEFE7" fill-rule="evenodd"/>
   <text id="text30905" fill="#979797" font-family="Source Code Pro" font-size="12px" font-weight="700" text-anchor="middle"><tspan id="tspan30903" x="44.5" y="21" fill="#808080">C11</tspan></text>
  </g>
  <g id="g30915" transform="translate(351.9,95)">
   <rect id="rect30909" transform="scale(.83962 1)" width="106" height="33" style="fill-rule:evenodd;fill:#f44d27"/>
   <text id="text30913" transform="translate(-8.5863 .958)" font-size="12px" font-weight="700" style="fill:#979797;font-family:'Source Code Pro';font-size:12px;font-weight:700;text-anchor:middle"><tspan id="tspan30911" x="53" y="20" style="fill:#f0f0f0">iss91v2</tspan></text>
  </g>
  <g id="g30923" transform="translate(7 95)">
   <rect id="rect30917" transform="matrix(.83962 0 0 1 16 0)" width="106" height="33" style="fill-rule:evenodd;fill:#f44d27"/>
   <text id="text30921" transform="translate(7.6057 .958)" font-size="12px" font-weight="700" style="fill:#979797;font-family:'Source Code Pro';font-size:12px;font-weight:700;text-anchor:middle"><tspan id="tspan30919" x="53" y="20" style="fill:#f0f0f0">dumbidea</tspan></text>
  </g>
 </g>
</svg>
